Origami/22x22/apps/dassault-systemes.draftsight.svg

<svg width="22" height="22" version="1.1" viewBox="0 0 22 22" xmlns="http://www.w3.org/2000/svg">
 <path d="m1.7421326 6.695195a1.2076346 1.0429572 75 0 0 -0.6947908 1.4362795l3.3336272 12.441268a1.2076346 1.0429572 75 0 0 1.319846 0.896459c3.511472-0.940897 5.489801-5.030521 4.400343-9.096435-1.089459-4.0659135-4.8475545-6.618467-8.3590254-5.677571z" style="opacity:.2"/>
 <path d="m1.7421326 6.1951955a1.2076346 1.0429572 75 0 0 -0.6947908 1.4362795l3.3336272 12.441267a1.2076346 1.0429572 75 0 0 1.319846 0.896459c3.511472-0.940896 5.489801-5.030521 4.400343-9.096434-1.089459-4.065914-4.8475545-6.6184675-8.3590254-5.6775715z" style="fill:#79b444"/>
 <path d="m3.9453125 9.083789c-0.01858-0.0039-0.036105 0.0046-0.054687 1e-3l2.476562 9.240211c1.2310665-1.076436 1.915094-3.082265 1.319336-5.305664-0.588871-2.197696-2.15572-3.597636-3.741211-3.935547z" style="opacity:.2"/>
 <path d="m3.9453125 8.5839845c-0.01858-0.00395-0.036105 0.00465-0.054687 1e-3l2.4765625 9.2402345c1.2310665-1.076436 1.915094-3.082265 1.319336-5.305665-0.588871-2.197695-2.15572-3.597635-3.741211-3.935546z" style="fill:#ffffff"/>
 <path d="m3.0644531 6.001953c-0.440947 0.01231-0.8833318 0.0757475-1.3222656 0.1933595a1.2076346 1.0429572 75 0 0 -0.7177735 1.3339845 1.2076346 1.0429572 75 0 1 0.7177735 -0.8339845c3.511471-0.940896 7.2699155 1.6118205 8.3593745 5.6777345 0.18066 0.67423 0.269145 1.347721 0.288086 2.008789 0.02493-0.818912-0.06157-1.663413-0.288086-2.508789-0.953276-3.557675-3.9504795-5.9572575-7.0371089-5.871094z" style="fill:#ffffff;opacity:.2"/>
 <path d="m10.140214 1.5006916a1.1786974 1.3044885 0 0 0 -1.140214 1.3035089v17.391442a1.1786974 1.3044885 0 0 0 1.178579 1.304358h8.642917a1.1786974 1.3044885 0 0 0 1.032792 -1.93276l-8.642917-17.391441a1.1786974 1.3044885 0 0 0 -1.071157 -0.6751071z" style="opacity:.2"/>
 <path d="m10.140214 1.0006916a1.1786974 1.3044885 0 0 0 -1.140214 1.303509v17.391441a1.1786974 1.3044885 0 0 0 1.178579 1.304358h8.642917a1.1786974 1.3044885 0 0 0 1.032792 -1.93276l-8.642917-17.391441a1.1786974 1.3044885 0 0 0 -1.071157 -0.6751073z" style="fill:#35aabd"/>
 <path d="m15 12.499988s-3 0-3 1 3 2.999999 3 3.999999-3 1-3 1" style="fill:none;opacity:.2;stroke-linejoin:round;stroke-width:2;stroke:#000000"/>
 <path d="m15 11.999987s-3 0-3 1 3 3 3 4-3 1-3 1" style="fill:none;stroke-linejoin:round;stroke-width:2;stroke:#ffffff"/>
 <path d="m10.140625 1.0009765a1.1786974 1.3044885 0 0 0 -1.140625 1.303711v0.5a1.1786974 1.3044885 0 0 1 1.140625 -1.303711 1.1786974 1.3044885 0 0 1 1.070312 0.6748048l8.643555 17.391602a1.1786974 1.3044885 0 0 1 0.12207 0.378906 1.1786974 1.3044885 0 0 0 -0.12207 -0.878906l-8.643555-17.391602a1.1786974 1.3044885 0 0 0 -1.070312 -0.6748048z" style="fill:#ffffff;opacity:.2"/>
</svg>

<svg xmlns="http://www.w3.org/2000/svg" width="22" height="22" version="1.1" viewBox="0 0 22 22">
 <path style="opacity:0.2" d="M 1.7421326,6.695195 A 1.2076346,1.0429572 75 0 0 1.0473418,8.1314745 L 4.380969,20.572742 a 1.2076346,1.0429572 75 0 0 1.319846,0.896459 C 9.212287,20.528304 11.190616,16.43868 10.101158,12.372766 9.011699,8.3068525 5.2536035,5.754299 1.7421326,6.695195 Z"/>
 <path style="fill:#79b444" d="M 1.7421326,6.1951955 A 1.2076346,1.0429572 75 0 0 1.0473418,7.631475 L 4.380969,20.072742 a 1.2076346,1.0429572 75 0 0 1.319846,0.896459 C 9.212287,20.028305 11.190616,15.93868 10.101158,11.872767 9.011699,7.806853 5.2536035,5.2542995 1.7421326,6.1951955 Z"/>
 <path style="opacity:0.2" d="m 3.9453125,9.083789 c -0.01858,-0.0039 -0.036105,0.0046 -0.054687,0.001 L 6.3671875,18.325 C 7.598254,17.248564 8.2822815,15.242735 7.6865235,13.019336 7.0976525,10.82164 5.5308035,9.4217 3.9453125,9.083789 Z"/>
 <path style="fill:#ffffff" d="m 3.9453125,8.5839845 c -0.01858,-0.00395 -0.036105,0.00465 -0.054687,10e-4 L 6.367188,17.825219 C 7.5982545,16.748783 8.282282,14.742954 7.686524,12.519554 7.097653,10.321859 5.530804,8.921919 3.945313,8.584008 Z"/>
 <path style="opacity:0.2;fill:#ffffff" d="M 3.0644531,6.001953 C 2.6235061,6.014263 2.1811213,6.0777005 1.7421875,6.1953125 A 1.2076346,1.0429572 75 0 0 1.024414,7.529297 1.2076346,1.0429572 75 0 1 1.7421875,6.6953125 c 3.511471,-0.940896 7.2699155,1.6118205 8.3593745,5.6777345 0.18066,0.67423 0.269145,1.347721 0.288086,2.008789 0.02493,-0.818912 -0.06157,-1.663413 -0.288086,-2.508789 C 9.148286,8.315372 6.1510825,5.9157895 3.0644531,6.001953 Z"/>
 <path style="opacity:0.2" d="M 10.140214,1.5006916 A 1.1786974,1.3044885 0 0 0 9,2.8042005 L 9,20.195642 A 1.1786974,1.3044885 0 0 0 10.178579,21.5 l 8.642917,0 a 1.1786974,1.3044885 0 0 0 1.032792,-1.93276 L 11.211371,2.1757987 A 1.1786974,1.3044885 0 0 0 10.140214,1.5006916 Z"/>
 <path style="fill:#35aabd" d="M 10.140214,1.0006916 A 1.1786974,1.3044885 0 0 0 9,2.3042006 L 9,19.695642 A 1.1786974,1.3044885 0 0 0 10.178579,21 l 8.642917,0 a 1.1786974,1.3044885 0 0 0 1.032792,-1.93276 L 11.211371,1.6757989 A 1.1786974,1.3044885 0 0 0 10.140214,1.0006916 Z"/>
 <path style="opacity:0.2;fill:none;stroke:#000000;stroke-width:2;stroke-linejoin:round" d="m 15,12.499988 c 0,0 -3,0 -3,1 0,1 3,2.999999 3,3.999999 0,1 -3,1 -3,1"/>
 <path style="fill:none;stroke:#ffffff;stroke-width:2;stroke-linejoin:round" d="m 15,11.999987 c 0,0 -3,0 -3,1 0,1 3,3 3,4 0,1 -3,1 -3,1"/>
 <path style="opacity:0.2;fill:#ffffff" d="M 10.140625,1.0009765 A 1.1786974,1.3044885 0 0 0 9,2.3046875 l 0,0.5 a 1.1786974,1.3044885 0 0 1 1.140625,-1.303711 1.1786974,1.3044885 0 0 1 1.070312,0.6748048 l 8.643555,17.3916017 a 1.1786974,1.3044885 0 0 1 0.12207,0.378906 1.1786974,1.3044885 0 0 0 -0.12207,-0.878906 L 11.210937,1.6757813 A 1.1786974,1.3044885 0 0 0 10.140625,1.0009765 Z"/>
</svg>
